assets/svg/brand/logo-beta-dark.svg

<svg width="127" height="20" viewBox="0 0 127 20" fill="none" xmlns="http://www.w3.org/2000/svg">
<path d="M9.87503 0.929443L20 7.00084V13.0723L9.87503 7.00084V0.929443Z" fill="url(#paint0_linear_3730_21047)"/>
<path d="M9.87503 19.8183L20 13.8082V7.7981L9.87503 13.8082V19.8183Z" fill="url(#paint1_linear_3730_21047)"/>
<path d="M9.875 0.929443L0 7.00084V13.0723L9.875 7.00084V0.929443Z" fill="url(#paint2_linear_3730_21047)"/>
<path d="M9.875 19.8183L0 13.8082V7.7981L9.875 13.8082V19.8183Z" fill="url(#paint3_linear_3730_21047)"/>
<path fill-rule="evenodd" clip-rule="evenodd" d="M29 15.4414H30.4204V10.7902H30.4211V9.56999H30.4204V5.3064H29V15.4414ZM31.9268 10.7902H31.9262V9.56999H31.9268L34.4806 5.3064H36.0444L33.1033 10.1155V10.1442L36.2309 15.4414H34.6241L31.9268 10.7902ZM45.7149 5.3064L43.7351 12.7426C43.5916 13.3024 43.5199 13.8192 43.5199 13.8192H43.4912C43.4912 13.8192 43.4338 13.2881 43.3046 12.7426L41.5113 5.3064H40.0479L42.6303 15.4414H44.2802L46.0306 8.86657C46.2027 8.22057 46.3319 7.43102 46.3319 7.43102H46.3606C46.3606 7.43102 46.4897 8.22057 46.6618 8.86657L48.4122 15.4414H50.0621L52.7163 5.3064H51.2529L49.3878 12.7426C49.2443 13.2881 49.2013 13.8192 49.2013 13.8192H49.1726C49.1726 13.8192 49.1008 13.3024 48.9574 12.7426L46.9775 5.3064H45.7149ZM63.6952 15.4414H57.569V5.3064H63.4513V6.54098H58.9894V9.71355H62.6192V10.9481H58.9894V14.2068H63.6952V15.4414ZM68.8062 15.4414H70.2265V8.86657C70.2265 8.29235 70.1261 7.38795 70.1261 7.38795H70.1548C70.1548 7.38795 70.6282 8.30671 71.0013 8.86657L75.5206 15.4414H76.9122V5.3064H75.4919V11.8956C75.4919 12.4555 75.5923 13.3599 75.5923 13.3599H75.5636C75.5636 13.3599 75.0901 12.4411 74.7171 11.8956L70.2122 5.3064H68.8062V15.4414ZM86.2641 15.4414H84.8437V6.54098H81.3718V5.3064H89.7361V6.54098H86.2641V15.4414ZM99.6183 15.4414H101.096L97.4519 5.3064H95.9598L92.3157 15.4414H93.7791L94.7685 12.5706L94.7682 12.5705L95.1564 11.3501L96.2898 8.13444C96.462 7.61764 96.6915 6.69889 96.6915 6.69889H96.7202C96.7202 6.69889 96.9354 7.61764 97.1076 8.13444L98.2267 11.3501L98.227 11.35L98.6123 12.5634L99.6183 15.4414Z" fill="white"/>
<path d="M105.196 1.02948V7.00001H107.646C108.758 7.00001 109.558 6.35159 109.558 5.33264C109.558 4.70106 109.179 4.09475 108.564 3.89264C109.128 3.69054 109.423 3.14317 109.423 2.57054C109.423 1.62738 108.665 1.02948 107.638 1.02948H105.196ZM107.604 6.30948H105.928V4.22948H107.604C108.27 4.22948 108.792 4.61685 108.792 5.28212C108.792 5.9979 108.261 6.30948 107.604 6.30948ZM107.587 3.57264H105.928V1.69474H107.579C108.168 1.69474 108.657 2.00633 108.657 2.62948C108.657 3.2779 108.219 3.57264 107.587 3.57264ZM115.048 1.02948H111.14V7.00001H115.048V6.30948H111.89V4.26317H114.652V3.5558H111.89V1.72001H115.048V1.02948Z" fill="#B98B55"/>
<path d="M105.196 1.02944V0.929443H105.096V1.02944H105.196ZM105.196 6.99997H105.096V7.09997H105.196V6.99997ZM108.564 3.8926L108.531 3.79846L108.256 3.89666L108.533 3.9876L108.564 3.8926ZM105.928 6.30944H105.828V6.40944H105.928V6.30944ZM105.928 4.22944V4.12944H105.828V4.22944H105.928ZM105.928 3.5726H105.828V3.6726H105.928V3.5726ZM105.928 1.69471V1.59471H105.828V1.69471H105.928ZM105.096 1.02944V6.99997H105.296V1.02944H105.096ZM105.196 7.09997H107.646V6.89997H105.196V7.09997ZM107.646 7.09997C108.221 7.09997 108.723 6.9323 109.084 6.62443C109.446 6.3153 109.658 5.8703 109.658 5.3326H109.458C109.458 5.81385 109.27 6.20253 108.954 6.47235C108.637 6.74343 108.183 6.89997 107.646 6.89997V7.09997ZM109.658 5.3326C109.658 4.66385 109.257 4.01499 108.595 3.7976L108.533 3.9876C109.101 4.17442 109.458 4.73819 109.458 5.3326H109.658ZM108.598 3.98674C109.211 3.76722 109.523 3.17507 109.523 2.5705H109.323C109.323 3.11118 109.046 3.61378 108.531 3.79846L108.598 3.98674ZM109.523 2.5705C109.523 2.06988 109.321 1.65643 108.98 1.36976C108.641 1.08441 108.17 0.929443 107.638 0.929443V1.12944C108.133 1.12944 108.555 1.27342 108.851 1.52282C109.146 1.77088 109.323 2.12795 109.323 2.5705H109.523ZM107.638 0.929443H105.196V1.12944H107.638V0.929443ZM107.604 6.20944H105.928V6.40944H107.604V6.20944ZM106.028 6.30944V4.22944H105.828V6.30944H106.028ZM105.928 4.32944H107.604V4.12944H105.928V4.32944ZM107.604 4.32944C107.918 4.32944 108.191 4.42086 108.383 4.58277C108.573 4.74313 108.692 4.97793 108.692 5.28208H108.892C108.892 4.92095 108.749 4.62944 108.512 4.4298C108.277 4.23171 107.956 4.12944 107.604 4.12944V4.32944ZM108.692 5.28208C108.692 5.61242 108.571 5.83881 108.383 5.98531C108.191 6.13467 107.919 6.20944 107.604 6.20944V6.40944C107.947 6.40944 108.268 6.32843 108.506 6.14305C108.747 5.95481 108.892 5.66752 108.892 5.28208H108.692ZM107.587 3.4726H105.928V3.6726H107.587V3.4726ZM106.028 3.5726V1.69471H105.828V3.5726H106.028ZM105.928 1.79471H107.579V1.59471H105.928V1.79471ZM107.579 1.79471C107.857 1.79471 108.103 1.86842 108.277 2.00664C108.448 2.1426 108.557 2.34693 108.557 2.62944H108.757C108.757 2.2888 108.622 2.02576 108.401 1.85014C108.183 1.67679 107.89 1.59471 107.579 1.59471V1.79471ZM108.557 2.62944C108.557 2.92935 108.457 3.13446 108.296 3.2669C108.131 3.40195 107.889 3.4726 107.587 3.4726V3.6726C107.917 3.6726 108.21 3.59588 108.422 3.42146C108.638 3.24443 108.757 2.97796 108.757 2.62944H108.557ZM115.048 1.02944H115.148V0.929443H115.048V1.02944ZM111.14 1.02944V0.929443H111.04V1.02944H111.14ZM111.14 6.99997H111.04V7.09997H111.14V6.99997ZM115.048 6.99997V7.09997H115.148V6.99997H115.048ZM115.048 6.30944H115.148V6.20944H115.048V6.30944ZM111.89 6.30944H111.79V6.40944H111.89V6.30944ZM111.89 4.26313V4.16313H111.79V4.26313H111.89ZM114.652 4.26313V4.36313H114.752V4.26313H114.652ZM114.652 3.55576H114.752V3.45576H114.652V3.55576ZM111.89 3.55576H111.79V3.65576H111.89V3.55576ZM111.89 1.71997V1.61997H111.79V1.71997H111.89ZM115.048 1.71997V1.81997H115.148V1.71997H115.048ZM115.048 0.929443H111.14V1.12944H115.048V0.929443ZM111.04 1.02944V6.99997H111.24V1.02944H111.04ZM111.14 7.09997H115.048V6.89997H111.14V7.09997ZM115.148 6.99997V6.30944H114.948V6.99997H115.148ZM115.048 6.20944H111.89V6.40944H115.048V6.20944ZM111.99 6.30944V4.26313H111.79V6.30944H111.99ZM111.89 4.36313H114.652V4.16313H111.89V4.36313ZM114.752 4.26313V3.55576H114.552V4.26313H114.752ZM114.652 3.45576H111.89V3.65576H114.652V3.45576ZM111.99 3.55576V1.71997H111.79V3.55576H111.99ZM111.89 1.81997H115.048V1.61997H111.89V1.81997ZM115.148 1.71997V1.02944H114.948V1.71997H115.148Z" fill="url(#paint4_linear_3730_21047)"/>
<path d="M116.514 1.72843H118.417V7.00001H119.175V1.72843H121.078V1.02948H116.514V1.72843ZM125.218 5.3158L125.824 7.00001H126.607L124.384 1.02948H123.491L121.277 7.00001H122.043L122.641 5.3158H125.218ZM124.957 4.60843H122.893L123.921 1.72843L124.957 4.60843Z" fill="#B98B55"/>
<path d="M116.514 1.72839H116.414V1.82839H116.514V1.72839ZM118.417 1.72839H118.517V1.62839H118.417V1.72839ZM118.417 6.99997H118.317V7.09997H118.417V6.99997ZM119.175 6.99997V7.09997H119.275V6.99997H119.175ZM119.175 1.72839V1.62839H119.075V1.72839H119.175ZM121.078 1.72839V1.82839H121.178V1.72839H121.078ZM121.078 1.02944H121.178V0.929443H121.078V1.02944ZM116.514 1.02944V0.929443H116.414V1.02944H116.514ZM116.514 1.82839H118.417V1.62839H116.514V1.82839ZM118.317 1.72839V6.99997H118.517V1.72839H118.317ZM118.417 7.09997H119.175V6.89997H118.417V7.09997ZM119.275 6.99997V1.72839H119.075V6.99997H119.275ZM119.175 1.82839H121.078V1.62839H119.175V1.82839ZM121.178 1.72839V1.02944H120.978V1.72839H121.178ZM121.078 0.929443H116.514V1.12944H121.078V0.929443ZM116.414 1.02944V1.72839H116.614V1.02944H116.414ZM125.218 5.31576L125.312 5.28189L125.288 5.21576H125.218V5.31576ZM125.824 6.99997L125.73 7.03384L125.754 7.09997H125.824V6.99997ZM126.607 6.99997V7.09997H126.751L126.701 6.96508L126.607 6.99997ZM124.384 1.02944L124.478 0.994548L124.453 0.929443H124.384V1.02944ZM123.491 1.02944V0.929443H123.422L123.397 0.994665L123.491 1.02944ZM121.277 6.99997L121.183 6.96519L121.133 7.09997H121.277V6.99997ZM122.043 6.99997V7.09997H122.113L122.137 7.03342L122.043 6.99997ZM122.641 5.31576V5.21576H122.57L122.546 5.2823L122.641 5.31576ZM124.957 4.60839V4.70839H125.099L125.051 4.57455L124.957 4.60839ZM122.893 4.60839L122.799 4.57479L122.751 4.70839H122.893V4.60839ZM123.921 1.72839L124.015 1.69455L123.92 1.43184L123.827 1.69479L123.921 1.72839ZM125.123 5.34963L125.73 7.03384L125.918 6.9661L125.312 5.28189L125.123 5.34963ZM125.824 7.09997H126.607V6.89997H125.824V7.09997ZM126.701 6.96508L124.478 0.994548L124.29 1.06434L126.513 7.03486L126.701 6.96508ZM124.384 0.929443H123.491V1.12944H124.384V0.929443ZM123.397 0.994665L121.183 6.96519L121.37 7.03475L123.585 1.06422L123.397 0.994665ZM121.277 7.09997H122.043V6.89997H121.277V7.09997ZM122.137 7.03342L122.735 5.34921L122.546 5.2823L121.949 6.96652L122.137 7.03342ZM122.641 5.41576H125.218V5.21576H122.641V5.41576ZM124.957 4.50839H122.893V4.70839H124.957V4.50839ZM122.988 4.64199L124.015 1.76199L123.827 1.69479L122.799 4.57479L122.988 4.64199ZM123.827 1.76223L124.862 4.64223L125.051 4.57455L124.015 1.69455L123.827 1.76223Z" fill="url(#paint5_linear_3730_21047)"/>
<defs>
<linearGradient id="paint0_linear_3730_21047" x1="28.6339" y1="6.96699" x2="3.66621" y2="6.96699" gradientUnits="userSpaceOnUse">
<stop stop-color="#996939"/>
<stop offset="1" stop-color="#D0A875"/>
</linearGradient>
<linearGradient id="paint1_linear_3730_21047" x1="14.9376" y1="19.8183" x2="17.3368" y2="-3.17984" gradientUnits="userSpaceOnUse">
<stop stop-color="#272728"/>
<stop offset="1" stop-color="#4B4B4B"/>
</linearGradient>
<linearGradient id="paint2_linear_3730_21047" x1="9.93598" y1="3.41873" x2="0.0912427" y2="11.2283" gradientUnits="userSpaceOnUse">
<stop stop-color="#996939"/>
<stop offset="1" stop-color="#D0A875"/>
</linearGradient>
<linearGradient id="paint3_linear_3730_21047" x1="4.93749" y1="19.8183" x2="4.93749" y2="7.7981" gradientUnits="userSpaceOnUse">
<stop stop-color="#363636"/>
<stop offset="1" stop-color="#333232"/>
</linearGradient>
<linearGradient id="paint4_linear_3730_21047" x1="110.379" y1="0.99997" x2="110.379" y2="8.99997" gradientUnits="userSpaceOnUse">
<stop stop-color="#FFD39B"/>
<stop offset="1" stop-color="#7C4C0E"/>
</linearGradient>
<linearGradient id="paint5_linear_3730_21047" x1="121.879" y1="0.99997" x2="121.879" y2="8.99997" gradientUnits="userSpaceOnUse">
<stop stop-color="#FFD39B"/>
<stop offset="1" stop-color="#7C4C0E"/>
</linearGradient>
</defs>
</svg>

<?xml version="1.0" encoding="utf-8"?>
<!-- Generator: Adobe Illustrator 26.3.1, SVG Export Plug-In . SVG Version: 6.00 Build 0)  -->
<svg version="1.1" id="Layer_1" xmlns="http://www.w3.org/2000/svg" xmlns:xlink="http://www.w3.org/1999/xlink" x="0px" y="0px"
	 viewBox="0 0 127 20" style="enable-background:new 0 0 127 20;" xml:space="preserve">
<style type="text/css">
	.st0{display:none;fill:url(#SVGID_1_);}
	.st1{display:none;fill:url(#SVGID_00000112590857868980769080000007105808384921435784_);}
	.st2{display:none;fill:url(#SVGID_00000034064500837890423880000001271867520330211467_);}
	.st3{display:none;fill:url(#SVGID_00000134933063466461527150000015943408893686803073_);}
	.st4{display:none;fill-rule:evenodd;clip-rule:evenodd;fill:#FFFFFF;}
	.st5{fill:#B98B55;}
	.st6{fill:url(#SVGID_00000107565643022526685840000012898317154173425561_);}
	.st7{fill:url(#SVGID_00000114050267011979010140000009829070593055802503_);}
	.st8{display:none;}
	.st9{display:inline;fill:#FFFFFF;}
	.st10{fill:#FFFFFF;}
</style>
<linearGradient id="SVGID_1_" gradientUnits="userSpaceOnUse" x1="28.6339" y1="14.9991" x2="3.6662" y2="14.9991" gradientTransform="matrix(1 0 0 -1 0 22)">
	<stop  offset="0" style="stop-color:#996939"/>
	<stop  offset="1" style="stop-color:#D0A875"/>
</linearGradient>
<path class="st0" d="M9.9,0.9L20,7v6.1L9.9,7V0.9z"/>
<linearGradient id="SVGID_00000085938991513993208720000017543646714238876820_" gradientUnits="userSpaceOnUse" x1="14.3173" y1="2.2464" x2="16.7165" y2="25.2446" gradientTransform="matrix(1 0 0 -1 0 22)">
	<stop  offset="0" style="stop-color:#272728"/>
	<stop  offset="1" style="stop-color:#4B4B4B"/>
</linearGradient>
<path style="display:none;fill:url(#SVGID_00000085938991513993208720000017543646714238876820_);" d="M9.9,19.8l10.1-6v-6l-10.1,6
	V19.8z"/>
<linearGradient id="SVGID_00000164504037075371687990000008015327263152349056_" gradientUnits="userSpaceOnUse" x1="9.7495" y1="18.8164" x2="-9.525955e-02" y2="11.0068" gradientTransform="matrix(1 0 0 -1 0 22)">
	<stop  offset="0" style="stop-color:#996939"/>
	<stop  offset="1" style="stop-color:#D0A875"/>
</linearGradient>
<path style="display:none;fill:url(#SVGID_00000164504037075371687990000008015327263152349056_);" d="M9.9,0.9L0,7v6.1L9.9,7V0.9z"
	/>
<linearGradient id="SVGID_00000023248162347893396420000003071691122167402414_" gradientUnits="userSpaceOnUse" x1="4.9375" y1="2.1817" x2="4.9375" y2="14.2019" gradientTransform="matrix(1 0 0 -1 0 22)">
	<stop  offset="0" style="stop-color:#363636"/>
	<stop  offset="1" style="stop-color:#333232"/>
</linearGradient>
<path style="display:none;fill:url(#SVGID_00000023248162347893396420000003071691122167402414_);" d="M9.9,19.8l-9.9-6v-6l9.9,6
	V19.8z"/>
<path class="st4" d="M29,15.4h1.4v-4.7h0V9.6h0V5.3H29V15.4z M31.9,10.8L31.9,10.8l0-1.2h0l2.6-4.3H36l-2.9,4.8v0l3.1,5.3h-1.6
	L31.9,10.8z M45.7,5.3l-2,7.4c-0.1,0.6-0.2,1.1-0.2,1.1h0c0,0-0.1-0.5-0.2-1.1l-1.8-7.4H40l2.6,10.1h1.6L46,8.9
	c0.2-0.6,0.3-1.4,0.3-1.4h0c0,0,0.1,0.8,0.3,1.4l1.8,6.6h1.6l2.7-10.1h-1.5l-1.9,7.4c-0.1,0.5-0.2,1.1-0.2,1.1h0
	c0,0-0.1-0.5-0.2-1.1l-2-7.4H45.7z M63.7,15.4h-6.1V5.3h5.9v1.2H59v3.2h3.6v1.2H59v3.3h4.7V15.4z M68.8,15.4h1.4V8.9
	c0-0.6-0.1-1.5-0.1-1.5h0c0,0,0.5,0.9,0.8,1.5l4.5,6.6h1.4V5.3h-1.4v6.6c0,0.6,0.1,1.5,0.1,1.5h0c0,0-0.5-0.9-0.8-1.5l-4.5-6.6h-1.4
	V15.4z M86.3,15.4h-1.4V6.5h-3.5V5.3h8.4v1.2h-3.5V15.4z M99.6,15.4h1.5L97.5,5.3H96l-3.6,10.1h1.5l1-2.9l0,0l0.4-1.2l1.1-3.2
	c0.2-0.5,0.4-1.4,0.4-1.4h0c0,0,0.2,0.9,0.4,1.4l1.1,3.2l0,0l0.4,1.2L99.6,15.4z"/>
<path class="st5" d="M105.2,1v6h2.5c1.1,0,1.9-0.6,1.9-1.7c0-0.6-0.4-1.2-1-1.4c0.6-0.2,0.9-0.7,0.9-1.3c0-0.9-0.8-1.5-1.8-1.5
	H105.2z M107.6,6.3h-1.7V4.2h1.7c0.7,0,1.2,0.4,1.2,1.1C108.8,6,108.3,6.3,107.6,6.3z M107.6,3.6h-1.7V1.7h1.7
	c0.6,0,1.1,0.3,1.1,0.9C108.7,3.3,108.2,3.6,107.6,3.6z M115,1h-3.9v6h3.9V6.3h-3.2v-2h2.8V3.6h-2.8V1.7h3.2V1z"/>
<linearGradient id="SVGID_00000089556400265579644350000010492638316660204940_" gradientUnits="userSpaceOnUse" x1="110.122" y1="21" x2="110.122" y2="13" gradientTransform="matrix(1 0 0 -1 0 22)">
	<stop  offset="0" style="stop-color:#FFD39B"/>
	<stop  offset="1" style="stop-color:#7C4C0E"/>
</linearGradient>
<path style="fill:url(#SVGID_00000089556400265579644350000010492638316660204940_);" d="M105.2,1L105.2,1L105.2,1L105.2,1L105.2,1z
	 M105.2,7L105.2,7L105.2,7L105.2,7L105.2,7z M108.6,3.9L108.6,3.9l-0.3,0L108.6,3.9L108.6,3.9z M105.9,6.3L105.9,6.3L105.9,6.3
	L105.9,6.3L105.9,6.3z M105.9,4.2V4.1h-0.1L105.9,4.2L105.9,4.2z M105.9,3.6L105.9,3.6l-0.1,0.1h0.1V3.6z M105.9,1.7V1.6h-0.1
	L105.9,1.7L105.9,1.7z M105.1,1v6h0.2V1H105.1z M105.2,7.1h2.5V6.9h-2.5V7.1z M107.6,7.1c0.6,0,1.1-0.2,1.4-0.5
	c0.4-0.3,0.6-0.8,0.6-1.3h-0.2c0,0.5-0.2,0.9-0.5,1.1c-0.3,0.3-0.8,0.4-1.3,0.4V7.1z M109.7,5.3c0-0.7-0.4-1.3-1.1-1.5L108.5,4
	c0.6,0.2,0.9,0.8,0.9,1.3H109.7z M108.6,4c0.6-0.2,0.9-0.8,0.9-1.4h-0.2c0,0.5-0.3,1-0.8,1.2L108.6,4z M109.5,2.6
	c0-0.5-0.2-0.9-0.5-1.2c-0.3-0.3-0.8-0.4-1.3-0.4v0.2c0.5,0,0.9,0.1,1.2,0.4c0.3,0.2,0.5,0.6,0.5,1H109.5z M107.6,0.9h-2.4v0.2h2.4
	V0.9z M107.6,6.2h-1.7v0.2h1.7V6.2z M106,6.3V4.2h-0.2v2.1H106z M105.9,4.3h1.7V4.1h-1.7V4.3z M107.6,4.3c0.3,0,0.6,0.1,0.8,0.3
	c0.2,0.2,0.3,0.4,0.3,0.7h0.2c0-0.4-0.1-0.7-0.4-0.9c-0.2-0.2-0.6-0.3-0.9-0.3V4.3z M108.7,5.3c0,0.3-0.1,0.6-0.3,0.7
	c-0.2,0.1-0.5,0.2-0.8,0.2v0.2c0.3,0,0.7-0.1,0.9-0.3c0.2-0.2,0.4-0.5,0.4-0.9H108.7z M107.6,3.5h-1.7v0.2h1.7V3.5z M106,3.6V1.7
	h-0.2v1.9H106z M105.9,1.8h1.7V1.6h-1.7V1.8z M107.6,1.8c0.3,0,0.5,0.1,0.7,0.2c0.2,0.1,0.3,0.3,0.3,0.6h0.2c0-0.3-0.1-0.6-0.4-0.8
	c-0.2-0.2-0.5-0.3-0.8-0.3V1.8z M108.6,2.6c0,0.3-0.1,0.5-0.3,0.6c-0.2,0.1-0.4,0.2-0.7,0.2v0.2c0.3,0,0.6-0.1,0.8-0.3
	c0.2-0.2,0.3-0.4,0.3-0.8H108.6z M115,1h0.1V0.9L115,1L115,1z M111.1,1L111.1,1L111.1,1L111.1,1L111.1,1z M111.1,7L111.1,7L111.1,7
	L111.1,7L111.1,7z M115,7L115,7l0.1,0.1V7H115z M115,6.3h0.1V6.2L115,6.3L115,6.3z M111.9,6.3L111.9,6.3L111.9,6.3L111.9,6.3
	L111.9,6.3z M111.9,4.3V4.2h-0.1L111.9,4.3L111.9,4.3z M114.7,4.3L114.7,4.3L114.7,4.3L114.7,4.3L114.7,4.3z M114.7,3.6L114.7,3.6
	L114.7,3.6L114.7,3.6L114.7,3.6z M111.9,3.6L111.9,3.6l-0.1,0.1h0.1V3.6z M111.9,1.7V1.6h-0.1L111.9,1.7L111.9,1.7z M115,1.7v0.1
	h0.1V1.7H115z M115,0.9h-3.9v0.2h3.9V0.9z M111,1v6h0.2V1H111z M111.1,7.1h3.9V6.9h-3.9V7.1z M115.1,7V6.3h-0.2V7H115.1z M115,6.2
	h-3.2v0.2h3.2V6.2z M112,6.3v-2h-0.2v2H112z M111.9,4.4h2.8V4.2h-2.8V4.4z M114.8,4.3V3.6h-0.2v0.7H114.8z M114.7,3.5h-2.8v0.2h2.8
	V3.5z M112,3.6V1.7h-0.2v1.8H112z M111.9,1.8h3.2V1.6h-3.2V1.8z M115.1,1.7V1h-0.2v0.7H115.1z"/>
<path class="st5" d="M116.5,1.7h1.9V7h0.8V1.7h1.9V1h-4.6V1.7z M125.2,5.3l0.6,1.7h0.8l-2.2-6h-0.9l-2.2,6h0.8l0.6-1.7H125.2z
	 M125,4.6h-2.1l1-2.9L125,4.6z"/>
<linearGradient id="SVGID_00000051343750619529070760000011287222096712022916_" gradientUnits="userSpaceOnUse" x1="121.5825" y1="21" x2="121.5825" y2="13" gradientTransform="matrix(1 0 0 -1 0 22)">
	<stop  offset="0" style="stop-color:#FFD39B"/>
	<stop  offset="1" style="stop-color:#7C4C0E"/>
</linearGradient>
<path style="fill:url(#SVGID_00000051343750619529070760000011287222096712022916_);" d="M116.5,1.7L116.5,1.7l-0.1,0.1h0.1V1.7z
	 M118.4,1.7L118.4,1.7l0.1-0.1h-0.1V1.7z M118.4,7L118.4,7L118.4,7L118.4,7L118.4,7z M119.2,7L119.2,7L119.2,7L119.2,7L119.2,7z
	 M119.2,1.7V1.6h-0.1v0.1H119.2z M121.1,1.7v0.1h0.1L121.1,1.7L121.1,1.7z M121.1,1L121.1,1L121.1,1L121.1,1L121.1,1z M116.5,1
	L116.5,1L116.5,1L116.5,1L116.5,1z M116.5,1.8h1.9V1.6h-1.9V1.8z M118.3,1.7V7h0.2V1.7H118.3z M118.4,7.1h0.8V6.9h-0.8V7.1z
	 M119.3,7V1.7h-0.2V7H119.3z M119.2,1.8h1.9V1.6h-1.9V1.8z M121.2,1.7V1H121v0.7H121.2z M121.1,0.9h-4.6v0.2h4.6V0.9z M116.4,1v0.7
	h0.2V1H116.4z M125.2,5.3L125.2,5.3L125.2,5.3L125.2,5.3L125.2,5.3z M125.8,7L125.8,7L125.8,7L125.8,7L125.8,7z M126.6,7L126.6,7
	l0.1,0.1L126.6,7L126.6,7z M124.4,1L124.4,1L124.4,1L124.4,1L124.4,1z M123.5,1L123.5,1L123.5,1L123.5,1L123.5,1z M121.3,7L121.3,7
	l-0.1,0.1L121.3,7L121.3,7z M122,7L122,7L122,7L122,7L122,7z M122.6,5.3L122.6,5.3L122.6,5.3L122.6,5.3L122.6,5.3z M125,4.6v0.1h0.1
	L125,4.6L125,4.6z M122.9,4.6L122.9,4.6l-0.1,0.1h0.1V4.6z M123.9,1.7L123.9,1.7l0-0.3L123.9,1.7L123.9,1.7z M125.1,5.3l0.6,1.7
	l0.2-0.1l-0.6-1.7L125.1,5.3z M125.8,7.1h0.8V6.9h-0.8V7.1z M126.7,7l-2.2-6l-0.2,0.1l2.2,6L126.7,7z M124.4,0.9h-0.9v0.2h0.9V0.9z
	 M123.4,1l-2.2,6l0.2,0.1l2.2-6L123.4,1z M121.3,7.1h0.8V6.9h-0.8V7.1z M122.1,7l0.6-1.7l-0.2-0.1L121.9,7L122.1,7z M122.6,5.4h2.6
	V5.2h-2.6V5.4z M125,4.5h-2.1v0.2h2.1V4.5z M123,4.6l1-2.9l-0.2-0.1l-1,2.9L123,4.6z M123.8,1.8l1,2.9l0.2-0.1l-1-2.9L123.8,1.8z"/>
<g class="st8">
	<path class="st9" d="M27.5,3c0.8-0.2,2-0.3,3.3-0.3c1.8,0,3,0.3,3.8,1c0.7,0.5,1.2,1.4,1.2,2.5c0,1.3-0.9,2.5-2.4,3.1v0
		c1.3,0.3,2.9,1.4,2.9,3.5c0,1.2-0.5,2.1-1.2,2.8c-1,0.9-2.5,1.3-4.8,1.3c-1.2,0-2.2-0.1-2.8-0.2V3z M29.3,8.7h1.6c1.9,0,3-1,3-2.3
		c0-1.6-1.2-2.3-3.1-2.3c-0.8,0-1.3,0.1-1.6,0.1V8.7z M29.3,15.4c0.4,0.1,0.9,0.1,1.5,0.1c1.9,0,3.6-0.7,3.6-2.7
		c0-1.9-1.6-2.7-3.6-2.7h-1.5V15.4z"/>
	<path class="st9" d="M40.9,12.4l-1.4,4.4h-1.9l4.7-13.9h2.2l4.7,13.9h-1.9l-1.5-4.4H40.9z M45.5,11l-1.4-4
		c-0.3-0.9-0.5-1.7-0.7-2.5h0c-0.2,0.8-0.4,1.7-0.7,2.5l-1.4,4H45.5z"/>
	<path class="st9" d="M51.1,14.6c0.8,0.5,2,0.9,3.2,0.9c1.8,0,2.9-1,2.9-2.4c0-1.3-0.7-2-2.6-2.8c-2.3-0.8-3.7-2-3.7-3.9
		c0-2.2,1.8-3.8,4.5-3.8c1.4,0,2.5,0.3,3.1,0.7L58,4.8c-0.5-0.2-1.4-0.7-2.6-0.7c-1.9,0-2.6,1.1-2.6,2.1c0,1.3,0.8,1.9,2.8,2.7
		c2.4,0.9,3.5,2,3.5,4.1c0,2.1-1.6,4-4.9,4c-1.3,0-2.8-0.4-3.5-0.9L51.1,14.6z"/>
	<path class="st9" d="M68.7,10.2h-5.4v5h6v1.5h-7.8V2.9H69v1.5h-5.7v4.4h5.4V10.2z"/>
	<path class="st9" d="M71.6,3c1.1-0.2,2.4-0.3,3.8-0.3c2.6,0,4.4,0.6,5.6,1.7c1.2,1.1,2,2.7,2,5c0,2.3-0.7,4.1-2,5.4
		c-1.3,1.3-3.4,2-6.1,2c-1.3,0-2.4-0.1-3.3-0.2V3z M73.4,15.3c0.5,0.1,1.1,0.1,1.8,0.1c3.8,0,5.9-2.1,5.9-5.9c0-3.3-1.8-5.4-5.6-5.4
		c-0.9,0-1.6,0.1-2.1,0.2V15.3z"/>
	<path class="st9" d="M85.4,2.9h7.5v1.5h-5.7V9h5.3v1.5h-5.3v6.3h-1.8V2.9z"/>
	<path class="st9" d="M97.2,2.9v13.9h-1.8V2.9H97.2z"/>
</g>
<g>
	<path class="st10" d="M27.7,4.5c0.8-0.1,2.1-0.2,3.4-0.2c1.9,0,3.1,0.3,4,0.8c0.8,0.4,1.2,1.1,1.2,2c0,1.1-0.9,2.1-2.5,2.5v0
		c1.4,0.3,3,1.2,3,2.9c0,1-0.5,1.7-1.2,2.3c-1,0.7-2.6,1.1-5,1.1c-1.3,0-2.3-0.1-2.9-0.1V4.5z M29.5,9.1h1.7c2,0,3.1-0.8,3.1-1.9
		c0-1.3-1.3-1.9-3.2-1.9c-0.9,0-1.4,0.1-1.7,0.1V9.1z M29.5,14.6c0.4,0.1,0.9,0.1,1.6,0.1c1.9,0,3.7-0.6,3.7-2.2
		c0-1.6-1.7-2.2-3.7-2.2h-1.5V14.6z"/>
	<path class="st10" d="M41.7,12.1l-1.5,3.6h-1.9l4.9-11.4h2.3l4.9,11.4h-2l-1.5-3.6H41.7z M46.4,11L45,7.7c-0.3-0.7-0.5-1.4-0.8-2.1
		h0C44,6.3,43.8,7,43.5,7.7L42.1,11H46.4z"/>
	<path class="st10" d="M52.2,13.9c0.8,0.4,2.1,0.7,3.4,0.7c1.9,0,3-0.8,3-1.9c0-1.1-0.8-1.7-2.7-2.3c-2.4-0.7-3.8-1.6-3.8-3.2
		c0-1.8,1.9-3.1,4.7-3.1c1.5,0,2.6,0.3,3.2,0.6l-0.5,1.2C59,5.7,58,5.3,56.7,5.3c-2,0-2.7,0.9-2.7,1.7c0,1.1,0.9,1.6,2.9,2.2
		c2.5,0.7,3.7,1.7,3.7,3.4c0,1.8-1.7,3.3-5.1,3.3c-1.4,0-2.9-0.3-3.7-0.7L52.2,13.9z"/>
	<path class="st10" d="M70.6,10.4H65v4.1h6.3v1.2h-8.2V4.3h7.8v1.2h-6v3.6h5.6V10.4z"/>
	<path class="st10" d="M73.7,4.5c1.1-0.1,2.5-0.2,4-0.2c2.7,0,4.6,0.5,5.9,1.4c1.3,0.9,2,2.3,2,4.1c0,1.9-0.7,3.4-2.1,4.4
		c-1.4,1.1-3.6,1.6-6.4,1.6c-1.3,0-2.5-0.1-3.4-0.1V4.5z M75.6,14.5c0.5,0.1,1.2,0.1,1.9,0.1c4,0,6.2-1.8,6.2-4.8
		c0-2.7-1.9-4.4-5.9-4.4c-1,0-1.7,0.1-2.2,0.2V14.5z"/>
	<path class="st10" d="M88,4.3h7.8v1.2h-5.9v3.8h5.5v1.2h-5.5v5.2H88V4.3z"/>
	<path class="st10" d="M100.4,4.3v11.4h-1.9V4.3H100.4z"/>
</g>
<image style="display:none;overflow:visible;" width="1060" height="1060" xlink:href="../../../../../../Library/Mobile Documents/com~apple~CloudDocs/Work/2022/BasedFi/Basedfi-logo-lg.png"  transform="matrix(1.781968e-02 0 0 1.781968e-02 0 0.9294)">
</image>
</svg>
